symbolic/32x32/apps/kdots.svg

<svg xmlns="http://www.w3.org/2000/svg" width="32" height="32" version="1"><rect style="opacity:.2" width="27" height="27" x="-31" y="-29" rx="1.35" ry="1.35" transform="matrix(0 -1 -1 0 0 0)"/><rect style="fill:#e4e4e4" width="27" height="27" x="-30" y="-29" rx="1.35" ry="1.35" transform="matrix(0 -1 -1 0 0 0)"/><path style="opacity:.3" d="M10.25 3v8.25H2V12h8.25v9H2v.75h8.25V30H11v-8.25h9V30h.75v-8.25H29V21h-8.25v-9H29v-.75h-8.25V3H20v8.25h-9V3zm.75 9h9v9h-9z"/><path style="fill:none;stroke:#003dd4;stroke-width:.74358958px" d="m10.551 11.782 9.667-8.379h8.379v8.38l-8.38 9.666z"/><path style="opacity:.2;fill:#fff" d="M3.35 3C2.602 3 2 3.602 2 4.35v1C2 4.602 2.602 4 3.35 4h24.3c.748 0 1.35.602 1.35 1.35v-1C29 3.602 28.398 3 27.65 3z"/><path style="opacity:.1" d="M20.5 2A2.5 2.5 0 0 0 18 4.5 2.5 2.5 0 0 0 20.5 7 2.5 2.5 0 0 0 23 4.5 2.5 2.5 0 0 0 20.5 2zm8 0A2.5 2.5 0 0 0 26 4.5 2.5 2.5 0 0 0 28.5 7 2.5 2.5 0 0 0 31 4.5 2.5 2.5 0 0 0 28.5 2zm-18 8A2.5 2.5 0 0 0 8 12.5a2.5 2.5 0 0 0 2.5 2.5 2.5 2.5 0 0 0 2.5-2.5 2.5 2.5 0 0 0-2.5-2.5zm10 0a2.5 2.5 0 0 0-2.5 2.5 2.5 2.5 0 0 0 2.5 2.5 2.5 2.5 0 0 0 2.5-2.5 2.5 2.5 0 0 0-2.5-2.5zm8 0a2.5 2.5 0 0 0-2.5 2.5 2.5 2.5 0 0 0 2.5 2.5 2.5 2.5 0 0 0 2.5-2.5 2.5 2.5 0 0 0-2.5-2.5zm-18 10A2.5 2.5 0 0 0 8 22.5a2.5 2.5 0 0 0 2.5 2.5 2.5 2.5 0 0 0 2.5-2.5 2.5 2.5 0 0 0-2.5-2.5zm10 0a2.5 2.5 0 0 0-2.5 2.5 2.5 2.5 0 0 0 2.5 2.5 2.5 2.5 0 0 0 2.5-2.5 2.5 2.5 0 0 0-2.5-2.5z"/><circle style="fill:#ef533a" cx="20.5" cy="11.5" r="2.5"/><circle style="fill:#ef533a" cx="10.5" cy="21.5" r="2.5"/><circle style="fill:#5284ff" cx="10.5" cy="11.5" r="2.5"/><circle style="fill:#5284ff" cx="20.5" cy="3.5" r="2.5"/><circle style="fill:#5284ff" cx="28.5" cy="3.5" r="2.5"/><circle style="fill:#5284ff" cx="28.5" cy="11.5" r="2.5"/><circle style="fill:#5284ff" cx="20.5" cy="21.5" r="2.5"/><path style="fill:none" d="M20.5 1A2.5 2.5 0 0 0 18 3.5 2.5 2.5 0 0 0 20.5 6 2.5 2.5 0 0 0 23 3.5 2.5 2.5 0 0 0 20.5 1zm8 0A2.5 2.5 0 0 0 26 3.5 2.5 2.5 0 0 0 28.5 6 2.5 2.5 0 0 0 31 3.5 2.5 2.5 0 0 0 28.5 1zm-18 8A2.5 2.5 0 0 0 8 11.5a2.5 2.5 0 0 0 2.5 2.5 2.5 2.5 0 0 0 2.5-2.5A2.5 2.5 0 0 0 10.5 9zm10 0a2.5 2.5 0 0 0-2.5 2.5 2.5 2.5 0 0 0 2.5 2.5 2.5 2.5 0 0 0 2.5-2.5A2.5 2.5 0 0 0 20.5 9zm8 0a2.5 2.5 0 0 0-2.5 2.5 2.5 2.5 0 0 0 2.5 2.5 2.5 2.5 0 0 0 2.5-2.5A2.5 2.5 0 0 0 28.5 9zm-18 10A2.5 2.5 0 0 0 8 21.5a2.5 2.5 0 0 0 2.5 2.5 2.5 2.5 0 0 0 2.5-2.5 2.5 2.5 0 0 0-2.5-2.5zm10 0a2.5 2.5 0 0 0-2.5 2.5 2.5 2.5 0 0 0 2.5 2.5 2.5 2.5 0 0 0 2.5-2.5 2.5 2.5 0 0 0-2.5-2.5z"/></svg>

<svg xmlns="http://www.w3.org/2000/svg" width="32" height="32" version="1">
 <rect style="opacity:0.2" width="27" height="27" x="-31" y="-29" rx="1.35" ry="1.35" transform="matrix(0,-1,-1,0,0,0)"/>
 <rect style="fill:#e4e4e4" width="27" height="27" x="-30" y="-29" rx="1.35" ry="1.35" transform="matrix(0,-1,-1,0,0,0)"/>
 <path style="opacity:0.3" d="M 10.250001,3.0000006 V 11.250001 H 2.0000001 v 0.75 h 8.2500009 v 9 H 2.0000001 V 21.75 h 8.2500009 v 8.250001 H 11 V 21.75 h 9 v 8.250001 h 0.75 V 21.75 h 8.250001 V 21.000001 H 20.75 v -9 h 8.250001 v -0.75 H 20.75 V 3.0000006 H 20 V 11.250001 H 11 V 3.0000006 Z M 11,12.000001 h 9 v 9 h -9 z"/>
 <path style="fill:none;stroke:#003dd4;stroke-width:0.74358958px" d="M 10.55128,11.782055 20.217945,3.403 H 28.597 v 8.379055 l -8.379055,9.666665 z"/>
 <path style="opacity:0.2;fill:#ffffff" d="M 3.3496094,3 C 2.6017094,3 2,3.6017094 2,4.3496094 v 1 C 2,4.6017094 2.6017094,4 3.3496094,4 H 27.650391 C 28.398291,4 29,4.6017094 29,5.3496094 v -1 C 29,3.6017094 28.398291,3 27.650391,3 Z"/>
 <path style="opacity:0.1" d="M 20.5,2 A 2.5,2.5 0 0 0 18,4.5 2.5,2.5 0 0 0 20.5,7 2.5,2.5 0 0 0 23,4.5 2.5,2.5 0 0 0 20.5,2 Z m 8,0 A 2.5,2.5 0 0 0 26,4.5 2.5,2.5 0 0 0 28.5,7 2.5,2.5 0 0 0 31,4.5 2.5,2.5 0 0 0 28.5,2 Z m -18,8 A 2.5,2.5 0 0 0 8,12.5 2.5,2.5 0 0 0 10.5,15 2.5,2.5 0 0 0 13,12.5 2.5,2.5 0 0 0 10.5,10 Z m 10,0 A 2.5,2.5 0 0 0 18,12.5 2.5,2.5 0 0 0 20.5,15 2.5,2.5 0 0 0 23,12.5 2.5,2.5 0 0 0 20.5,10 Z m 8,0 A 2.5,2.5 0 0 0 26,12.5 2.5,2.5 0 0 0 28.5,15 2.5,2.5 0 0 0 31,12.5 2.5,2.5 0 0 0 28.5,10 Z m -18,10 A 2.5,2.5 0 0 0 8,22.5 2.5,2.5 0 0 0 10.5,25 2.5,2.5 0 0 0 13,22.5 2.5,2.5 0 0 0 10.5,20 Z m 10,0 A 2.5,2.5 0 0 0 18,22.5 2.5,2.5 0 0 0 20.5,25 2.5,2.5 0 0 0 23,22.5 2.5,2.5 0 0 0 20.5,20 Z"/>
 <g>
  <circle style="fill:#ef533a" cx="20.5" cy="11.5" r="2.5"/>
  <circle style="fill:#ef533a" cx="10.5" cy="21.5" r="2.5"/>
  <circle style="fill:#5284ff" cx="10.5" cy="11.5" r="2.5"/>
  <circle style="fill:#5284ff" cx="20.5" cy="3.5" r="2.5"/>
  <circle style="fill:#5284ff" cx="28.5" cy="3.5" r="2.5"/>
  <circle style="fill:#5284ff" cx="28.5" cy="11.5" r="2.5"/>
  <circle style="fill:#5284ff" cx="20.5" cy="21.5" r="2.5"/>
 </g>
 <path style="fill:none" d="M 20.5,1 A 2.5,2.5 0 0 0 18,3.5 2.5,2.5 0 0 0 20.5,6 2.5,2.5 0 0 0 23,3.5 2.5,2.5 0 0 0 20.5,1 Z m 8,0 A 2.5,2.5 0 0 0 26,3.5 2.5,2.5 0 0 0 28.5,6 2.5,2.5 0 0 0 31,3.5 2.5,2.5 0 0 0 28.5,1 Z m -18,8 A 2.5,2.5 0 0 0 8,11.5 2.5,2.5 0 0 0 10.5,14 2.5,2.5 0 0 0 13,11.5 2.5,2.5 0 0 0 10.5,9 Z m 10,0 A 2.5,2.5 0 0 0 18,11.5 2.5,2.5 0 0 0 20.5,14 2.5,2.5 0 0 0 23,11.5 2.5,2.5 0 0 0 20.5,9 Z m 8,0 A 2.5,2.5 0 0 0 26,11.5 2.5,2.5 0 0 0 28.5,14 2.5,2.5 0 0 0 31,11.5 2.5,2.5 0 0 0 28.5,9 Z m -18,10 A 2.5,2.5 0 0 0 8,21.5 2.5,2.5 0 0 0 10.5,24 2.5,2.5 0 0 0 13,21.5 2.5,2.5 0 0 0 10.5,19 Z m 10,0 A 2.5,2.5 0 0 0 18,21.5 2.5,2.5 0 0 0 20.5,24 2.5,2.5 0 0 0 23,21.5 2.5,2.5 0 0 0 20.5,19 Z"/>
</svg>
